X:620
T: Paidraigin Rua
T: Pat the Redhead
C: BB
R: reel
Q: 1/8=350
M: 4/4
L: 1/8
K: D
A|"Bm"BAFA Bcdf|"D"a2 fd "Bm"BFFA|"G"GB (3BAB gfed|"Bm"FB (3BAB "F#m"fecA |
"Bm"BAFA Bcdf|"D"af"A"ge "Bm"dBBA|"Bm"FB (3BAB "G"dBAG|"D"FD"A"EC "D"D3 :|
A|"G"dB (3BAB "D"af (3fef|"Bm"bfaf "A"egfe|"G"dB (3BAB "D"af (3fef|\
"A"eA (3ABA "Bm"B2 Bc |
"G"dB (3BAB "D"af (3fef|"Bm"bfaf "Em"efde|"Bm"fbaf "Em7"edBd|"A"cdec "D"d3 :|
%%%%%%%%%%%%%%%%%%%%%%%%%%%%%%%%%%%%%%%%%%%
